src/assets/images/social/twitter.svg

<svg width="64" height="64" viewBox="0 0 64 64" fill="none" xmlns="http://www.w3.org/2000/svg"><path d="M32 0C14.3296.0.0 14.3296.0 32 0 49.6704 14.3296 64 32 64c17.6704.0 32-14.3296 32-32C64 14.3296 49.6704.0 32 0zM46.6108 24.9502C46.625 25.2651 46.6318 25.5815 46.6318 25.8994 46.6318 35.605 39.2441 46.7969 25.7339 46.7974H25.7344 25.7339C21.5859 46.7974 17.7261 45.5815 14.4756 43.498 15.0503 43.5659 15.6353 43.5996 16.2275 43.5996 19.6689 43.5996 22.8359 42.4258 25.3501 40.4556 22.1348 40.396 19.4238 38.2725 18.4883 35.354 18.936 35.4399 19.3965 35.4868 19.8687 35.4868 20.5391 35.4868 21.1885 35.3965 21.8057 35.228 18.4448 34.5552 15.9131 31.585 15.9131 28.0283 15.9131 27.9951 15.9131 27.9653 15.9141 27.9346 16.9038 28.4849 18.0356 28.8159 19.2407 28.853 17.2686 27.5371 15.9722 25.2876 15.9722 22.7393 15.9722 21.3936 16.3359 20.1328 16.9668 19.0474 20.5889 23.4917 26.002 26.4146 32.1064 26.7217 31.9805 26.1836 31.9155 25.623 31.9155 25.0469 31.9155 20.9922 35.2051 17.7026 39.2612 17.7026 41.374 17.7026 43.2822 18.5957 44.6226 20.0234 46.2959 19.6934 47.8672 19.082 49.2866 18.2407 48.7373 19.9551 47.5732 21.3936 46.0566 22.3032 47.5425 22.1255 48.9585 21.7314 50.2744 21.1465 49.2915 22.6196 48.0449 23.9136 46.6108 24.9502z" fill="#4d9feb"/></svg>

<svg width="64" height="64" fill="none" xmlns="http://www.w3.org/2000/svg"><path d="M32 0C14.33 0 0 14.33 0 32s14.33 32 32 32 32-14.33 32-32S49.67 0 32 0zm14.61 24.95c.015.315.022.631.022.95 0 9.705-7.388 20.897-20.898 20.897a20.79 20.79 0 01-11.258-3.299c.574.068 1.16.102 1.751.102 3.442 0 6.609-1.174 9.123-3.144a7.353 7.353 0 01-6.862-5.102 7.313 7.313 0 003.318-.126 7.347 7.347 0 01-5.893-7.2l.001-.093c.99.55 2.122.88 3.327.918a7.338 7.338 0 01-3.269-6.114c0-1.345.364-2.606.995-3.692a20.853 20.853 0 0015.14 7.675 7.346 7.346 0 0112.516-6.698 14.73 14.73 0 004.664-1.783 7.373 7.373 0 01-3.23 4.062 14.649 14.649 0 004.217-1.157 14.926 14.926 0 01-3.663 3.804z" fill="#4d9feb"/></svg>
